public/avatar/item2/6.svg

<svg xmlns:xlink="http://www.w3.org/1999/xlink" height="99.2" width="82.2" xmlns="http://www.w3.org/2000/svg"><use height="15.45" transform="translate(9.4 67.45)" width="42.25" xlink:href="#a"/><defs><g id="a" fill-rule="evenodd"><path d="M.55 35.05q0 1.1-1 1.1-.6 0-.95-.55l-.2-.55q-2.55-.25-2.95-.75-.2-.25.5-.85l.8-1q0-3.7 2.8-3.7 2.85 0 2.85 3.7 0 .3.75.85.65.55.5.8-.4.75-3.1.95" fill="#d7a400" transform="translate(21.6 -20.7)"/><path d="M2.45 32.45q0 .3.75.85.65.55.5.8-.45.65-2.35.85l-.5-.35.5-2.2-1-2.8.3-.7q1.8.85 1.8 3.55" fill="#be6c18" transform="translate(21.6 -20.7)"/><path d="M.4 34.65h-1.8q-2.15-.1-2.55-.65 1.1-.95 1.1-1.55 0-3.3 2.45-3.3 2.4 0 2.4 3.3 0 .5 1.1 1.4-.4.55-2.7.8" fill="#ffe168" transform="translate(21.6 -20.7)"/><path d="M-1.4 32.35q-.5 1.7-.7 1.8l-1.2-.45q.85-.5 1-1.65.2-1.9.95-2.35 1.4.1.9.2-.5.1-.95 2.45" fill="#fcfb88" transform="translate(21.6 -20.7)"/><path d="m-.6 35.8-.45-.3q-.05-.3.5-.3.4.6-.05.6" fill="#fcce00" transform="translate(21.6 -20.7)"/><path d="m.45 29.8-.4-.6Q2 29.4 2 32.45l.95 1.1q.75.75-1.5.95-.5.05-.6-2.05 0-1.95-.4-2.65" fill="#fabf15" transform="translate(21.6 -20.7)"/><path d="m1.2 30.65.55 2.15.8.95q0 .25-.35.25-.35.1-.8-1.25l-.2-2.1" fill="#fcfb88" transform="translate(21.6 -20.7)"/><path d="M.55 35.05q-.05 1-.8 1.05.55-.35.15-1l.65-.05" fill="#be6c18" transform="translate(21.6 -20.7)"/><path d="M-9.9 33.95q-.55-.15-.7-.7l-.05-.5q-2.15-.85-2.3-1.35-.1-.25.65-.6l.9-.65q.9-3.15 3.3-2.45 2.4.7 1.5 3.8 1 1.4.65 1.75l-2.85.05q-.25.9-1.1.65" fill="#d7a400" transform="translate(21.6 -20.7)"/><path d="M-6.55 31.55q1 1.35.65 1.7l-2.2.15-.35-.4.95-1.8-.15-2.6.4-.5q1.35 1.15.7 3.45" fill="#be6c18" transform="translate(21.6 -20.7)"/><path d="M-6.95 31.4q.85 1.2.55 1.5-.45.45-2.45 0l-1.55-.45q-1.8-.6-2-1.15 1.2-.55 1.35-1.05.8-2.75 2.85-2.2 2.05.65 1.25 3.35" fill="#ffe168" transform="translate(21.6 -20.7)"/><path d="M-9.1 28.3q1.15.45.7.4-.45-.05-1.4 1.8-.75 1.35-1.05 1.35l-.9-.65q.9-.35 1.25-1.15.6-1.55 1.4-1.75" fill="#fcfb88" transform="translate(21.6 -20.7)"/><path d="m-9.95 33.65-.35-.4.55-.1q.15.6-.2.5" fill="#fcce00" transform="translate(21.6 -20.7)"/><path d="m-7.65 28.8-.2-.6q1.65.65.9 3.25l.5 1.15q.85.85-1.5.45-.4-.05 0-1.9.55-1.4.3-2.35" fill="#fabf15" transform="translate(21.6 -20.7)"/><path d="m-7.2 29.7-.05 2 .45 1-.35.1q-.4 0-.4-1.25l.35-1.85" fill="#fcfb88" transform="translate(21.6 -20.7)"/><path d="M-8.8 33.3q-.3.8-.95.65.55-.1.35-.8l.6.15" fill="#be6c18" transform="translate(21.6 -20.7)"/><path d="M-13.1 28.75q.55 1.5.15 1.7-.6.25-2.5-.7-.5.7-1.15.3-.45-.3-.45-.8l.1-.45q-1.65-1.2-1.65-1.75 0-.3.7-.4l.95-.35q1.6-2.5 3.5-1.25 1.95 1.2.35 3.7" fill="#d7a400" transform="translate(21.6 -20.7)"/><path d="M-13.05 28.75q.5 1.5.1 1.7-.45.25-1.95-.45l-.2-.45 1.3-1.3q.4-.6.55-2.3l.45-.35q.9 1.4-.25 3.15" fill="#be6c18" transform="translate(21.6 -20.7)"/><path d="M-13.35 28.6q.45 1.25.1 1.4-.5.25-2.15-.6l-1.25-.8q-1.4-1.05-1.45-1.5 1.15-.2 1.45-.6 1.4-2.2 3.05-1.15 1.65 1.05.25 3.25" fill="#ffe168" transform="translate(21.6 -20.7)"/><path d="M-14.45 25.3q.55 0 .5.5-.3-.1-1.7 1.25-.95.95-1.25.9l-.65-.75q1-.2 1.4-.75 1-1.25 1.7-1.15" fill="#fcfb88" transform="translate(21.6 -20.7)"/><path d="m-16.6 29.75-.15-.4.45.05q0 .55-.3.35" fill="#fcce00" transform="translate(21.6 -20.7)"/><path d="m-13.3 26.1-.05-.55q1.3 1-.05 3.05-.2.3.2 1.1l-1.45.05q-.4-.2.5-1.65.8-1.15.85-2" fill="#fabf15" transform="translate(21.6 -20.7)"/><path d="m-13.15 27.05-.55 1.7.15.95-.4.05q-.2-.15 0-1.2l.8-1.5" fill="#fcfb88" transform="translate(21.6 -20.7)"/><path d="M-15.45 29.75q-.5.65-1 .35.5 0 .5-.65l.5.3" fill="#be6c18" transform="translate(21.6 -20.7)"/><path d="M-16.85 24.45q.35 1.35 0 1.5-.6.25-2.2-.8-.45.6-1 .2l-.2-1.15q-1.35-1.1-1.35-1.65 1.25-.1 1.55-.5 1.55-2.1 3.15-.9 1.65 1.25.05 3.3" fill="#d7a400" transform="translate(21.6 -20.7)"/><path d="M-16.85 24.5q.35 1.3 0 1.45-.5.2-1.7-.5l-.15-.4 1.25-1.05q.4-.5.65-2l.45-.25q.65 1.2-.5 2.75" fill="#be6c18" transform="translate(21.6 -20.7)"/><path d="M-17.1 24.3q.3 1.15 0 1.25-.5.2-1.85-.7l-1.05-.8q-1.15-.9-1.15-1.4l1.3-.45q1.4-1.85 2.8-.8 1.3 1.05-.05 2.9" fill="#ffe168" transform="translate(21.6 -20.7)"/><path d="M-17.8 21.3q.5.05.4.5-.25-.1-1.6 1l-1.15.7-.5-.75q.8 0 1.3-.55.9-1 1.55-.9" fill="#fcfb88" transform="translate(21.6 -20.7)"/><path d="m-20 25.05-.15-.35.45.1-.3.25" fill="#fcce00" transform="translate(21.6 -20.7)"/><path d="M-16.85 22.15v-.5q1.05.95-.25 2.65-.25.4.05 1l-1.25-.05q-.25-.15.55-1.45.8-.9.9-1.65" fill="#fabf15" transform="translate(21.6 -20.7)"/><path d="m-16.8 22.95-.6 1.45.05.9-.3-.05q-.3-.1.1-1.05l.75-1.25" fill="#fcfb88" transform="translate(21.6 -20.7)"/><path d="M-19.05 25.15q-.45.55-.9.25.45.05.5-.5l.4.25" fill="#be6c18" transform="translate(21.6 -20.7)"/><path d="M12 31.1q-.15.7-2.35 1.6.3.9-.55 1.2l-.95-.2-.3-.4-2.7.15q-.25-.2.2-.85l.4-1.05q-1-3.1 1.4-3.9 2.35-.7 3.35 2.35.15.55 1.5 1.1" fill="#d7a400" transform="translate(21.6 -20.7)"/><path d="M10.55 30q.15.55 1.5 1.1-.2.55-1.75 1.35l-.55-.2-.15-2L8 28.2l.05-.65q1.8.2 2.5 2.45" fill="#be6c18" transform="translate(21.6 -20.7)"/><path d="m10.15 30.15 1.3.9q-.2.7-2.05 1.35l-1.55.5-2.25.15q.65-1.1.45-1.6-.8-2.75 1.2-3.4 2.1-.65 2.9 2.1" fill="#ffe168" transform="translate(21.6 -20.7)"/><path d="m6.6 28.7.8-.05q-.15.1-.15 2.35.15 1.45-.1 1.65h-1.1q.55-.9.35-1.7-.35-1.6.2-2.25" fill="#fcfb88" transform="translate(21.6 -20.7)"/><path d="M8.85 33.65q-.3.1-.45-.15-.15-.2.35-.35.5.4.1.5" fill="#fcce00" transform="translate(21.6 -20.7)"/><path d="m8.15 28.35-.5-.4.95.15q1.05.45 1.55 2.05.05.15 1.05.65 1 .35-.95 1.25-.4.15-1.05-1.6l-1.05-2.1" fill="#fabf15" transform="translate(21.6 -20.7)"/><path d="m9 28.85 1.05 1.65.9.6q.1.2-.2.3-.35.25-1-.85L9 28.85" fill="#fcfb88" transform="translate(21.6 -20.7)"/><path d="M9.65 32.7q.2.85-.4 1.1.35-.4-.15-.85l.55-.25" fill="#be6c18" transform="translate(21.6 -20.7)"/><path d="M17.8 27q-.05.6-1.8 1.9.45.75-.25 1.15-.45.25-.9 0l-.35-.3q-1.8.9-2.35.7.4-1.35.15-1.85-1.45-2.55.5-3.7 2-1.15 3.45 1.45.25.45 1.55.65" fill="#d7a400" transform="translate(21.6 -20.7)"/><path d="M16.25 26.35q.25.4 1.55.65 0 .55-1.3 1.55l-.5-.05-.5-1.75-1.8-1.55-.1-.6q1.6-.15 2.65 1.75" fill="#be6c18" transform="translate(21.6 -20.7)"/><path d="M15.95 26.5q.2.4 1.3.55 0 .6-1.5 1.65l-1.3.75q-1.6.75-2 .55.35-1.15.1-1.55-1.3-2.25.4-3.25 1.7-.95 3 1.3" fill="#ffe168" transform="translate(21.6 -20.7)"/><path d="M12.5 25.95q1.05-.45.75-.2-.15.15.3 2.05l.25 1.55-1 .2q.35-.8 0-1.6-.6-1.35-.3-2" fill="#fcfb88" transform="translate(21.6 -20.7)"/><path d="M15.5 29.9h-.45q-.15-.2.25-.45.5.25.2.45" fill="#fcce00" transform="translate(21.6 -20.7)"/><path d="m13.8 25.3-.5-.25.9-.05q1 .2 1.8 1.55.2.35 1.05.35.75.25-.65 1.3-.25.15-1.25-1.2l-1.35-1.7" fill="#fabf15" transform="translate(21.6 -20.7)"/><path d="m14.7 25.6 1.25 1.3.9.3-.15.35q-.15.15-1.05-.55l-.95-1.4" fill="#fcfb88" transform="translate(21.6 -20.7)"/><path d="M16 28.9q.35.75-.15 1.05.25-.45-.3-.75l.45-.3" fill="#be6c18" transform="translate(21.6 -20.7)"/><path d="m19.15 22 1.45.35q.1.55-1.25 1.9.5.6-.05 1.05l-1.15-.1q-1.5 1.05-1.95.95.2-1.2-.15-1.6-1.7-2.05-.1-3.3 1.6-1.3 3.2.75" fill="#d7a400" transform="translate(21.6 -20.7)"/><path d="M19.2 21.95q.25.35 1.45.35.05.4-.9 1.55l-.45.05-.75-1.45-1.8-1.1-.15-.5q1.35-.35 2.6 1.1" fill="#be6c18" transform="translate(21.6 -20.7)"/><path d="M18.95 22.15q.25.3 1.2.3.1.5-1.05 1.65l-1.05.85q-1.25.85-1.65.75.15-1-.1-1.35-1.5-1.75-.15-2.85 1.3-1.05 2.8.65" fill="#ffe168" transform="translate(21.6 -20.7)"/><path d="m15.85 22.2.6-.3q-.3.35.6 1.75l.4 1.3-.8.3q.2-.75-.25-1.35-.75-1.1-.55-1.7" fill="#fcfb88" transform="translate(21.6 -20.7)"/><path d="m16.9 21.45-.5-.15.75-.2q.95.05 1.8 1.1l1 .15q.8 0-.35 1.2-.25.25-1.25-.85-.75-1-1.45-1.25" fill="#fabf15" transform="translate(21.6 -20.7)"/><path d="m17.7 21.55 1.3.95.85.15-.1.3q-.25.25-1-.35l-1.05-1.05" fill="#fcfb88" transform="translate(21.6 -20.7)"/><path d="M19.35 24.25q.4.55 0 .95.2-.45-.35-.6l.35-.35" fill="#be6c18" transform="translate(21.6 -20.7)"/><path d="M15.6 20.85v.75l-1.75 2.2Q9.05 28.85-.5 28.85t-14.25-5.2l-1.5-2v-.95l1.3 1.7q4.55 4.8 14.25 4.8 10.2 0 14.85-4.65l1.45-1.7" fill="#d7a400" transform="translate(21.6 -20.7)"/><path d="M10.55 26.4Q6.1 28.85-.5 28.85l-.15-1.65q6.75 0 11-2.05 1.1.25.2 1.25" fill="#be6c18" transform="translate(21.6 -20.7)"/><path d="M13.8 23.5q-4.8 5-14.35 5t-14.25-5.2l-1-1.25v-.2l.85.95q4.55 4.75 14.2 4.75 10.2 0 14.85-4.55l1.05-1.1-1.35 1.6" fill="#ffe168" transform="translate(21.6 -20.7)"/><path d="m-2.85 27.6-.4.5q-3.25-.3-5.8-1.7 2.2.9 6.2 1.2" fill="#fcfbae" transform="translate(21.6 -20.7)"/></g></defs></svg>

<?xml version="1.0" encoding="UTF-8" standalone="no"?>
<svg xmlns:xlink="http://www.w3.org/1999/xlink" height="99.2px" width="82.2px" xmlns="http://www.w3.org/2000/svg">
  <g transform="matrix(1.0, 0.0, 0.0, 1.0, 31.0, 46.75)">
    <use height="15.45" transform="matrix(1.0, 0.0, 0.0, 1.0, -21.6, 20.7)" width="42.25" xlink:href="#shape0"/>
  </g>
  <defs>
    <g id="shape0" transform="matrix(1.0, 0.0, 0.0, 1.0, 21.6, -20.7)">
      <path d="M0.55 35.05 Q0.55 36.15 -0.45 36.15 -1.05 36.15 -1.4 35.6 L-1.6 35.05 Q-4.15 34.8 -4.55 34.3 -4.75 34.05 -4.05 33.45 L-3.25 32.45 Q-3.25 28.75 -0.45 28.75 2.4 28.75 2.4 32.45 2.4 32.75 3.15 33.3 3.8 33.85 3.65 34.1 3.25 34.85 0.55 35.05" fill="#d7a400" fill-rule="evenodd" stroke="none"/>
      <path d="M2.45 32.45 Q2.45 32.75 3.2 33.3 3.85 33.85 3.7 34.1 3.25 34.75 1.35 34.95 L0.85 34.6 1.35 32.4 0.35 29.6 0.65 28.9 Q2.45 29.75 2.45 32.45" fill="#be6c18" fill-rule="evenodd" stroke="none"/>
      <path d="M0.4 34.65 L-1.4 34.65 Q-3.55 34.55 -3.95 34.0 -2.85 33.05 -2.85 32.45 -2.85 29.15 -0.4 29.15 2.0 29.15 2.0 32.45 2.0 32.95 3.1 33.85 2.7 34.4 0.4 34.65" fill="#ffe168" fill-rule="evenodd" stroke="none"/>
      <path d="M-1.4 32.35 Q-1.9 34.05 -2.1 34.15 L-3.3 33.7 Q-2.45 33.2 -2.3 32.05 -2.1 30.15 -1.35 29.7 0.05 29.8 -0.45 29.9 -0.95 30.0 -1.4 32.35" fill="#fcfb88" fill-rule="evenodd" stroke="none"/>
      <path d="M-0.6 35.8 L-1.05 35.5 Q-1.1 35.2 -0.55 35.2 -0.15 35.8 -0.6 35.8" fill="#fcce00" fill-rule="evenodd" stroke="none"/>
      <path d="M0.45 29.8 L0.05 29.2 Q2.0 29.4 2.0 32.45 L2.95 33.55 Q3.7 34.3 1.45 34.5 0.95 34.55 0.85 32.45 0.85 30.5 0.45 29.8" fill="#fabf15" fill-rule="evenodd" stroke="none"/>
      <path d="M1.2 30.65 L1.75 32.8 2.55 33.75 Q2.55 34.0 2.2 34.0 1.85 34.1 1.4 32.75 L1.2 30.65" fill="#fcfb88" fill-rule="evenodd" stroke="none"/>
      <path d="M0.55 35.05 Q0.5 36.05 -0.25 36.1 0.3 35.75 -0.1 35.1 L0.55 35.05" fill="#be6c18" fill-rule="evenodd" stroke="none"/>
      <path d="M-9.9 33.95 Q-10.45 33.8 -10.6 33.25 L-10.65 32.75 Q-12.8 31.9 -12.95 31.4 -13.05 31.15 -12.3 30.8 L-11.4 30.15 Q-10.5 27.0 -8.1 27.7 -5.7 28.4 -6.6 31.5 -5.6 32.9 -5.95 33.25 L-8.8 33.3 Q-9.05 34.2 -9.9 33.95" fill="#d7a400" fill-rule="evenodd" stroke="none"/>
      <path d="M-6.55 31.55 Q-5.55 32.9 -5.9 33.25 L-8.1 33.4 -8.45 33.0 -7.5 31.2 -7.65 28.6 -7.25 28.1 Q-5.9 29.25 -6.55 31.55" fill="#be6c18" fill-rule="evenodd" stroke="none"/>
      <path d="M-6.95 31.4 Q-6.1 32.6 -6.4 32.9 -6.85 33.35 -8.85 32.9 L-10.4 32.45 Q-12.2 31.85 -12.4 31.3 -11.2 30.75 -11.05 30.25 -10.25 27.5 -8.2 28.05 -6.15 28.7 -6.95 31.4" fill="#ffe168" fill-rule="evenodd" stroke="none"/>
      <path d="M-9.1 28.3 Q-7.95 28.75 -8.4 28.7 -8.85 28.65 -9.8 30.5 -10.55 31.85 -10.85 31.85 L-11.75 31.2 Q-10.85 30.85 -10.5 30.05 -9.9 28.5 -9.1 28.3" fill="#fcfb88" fill-rule="evenodd" stroke="none"/>
      <path d="M-9.95 33.65 L-10.3 33.25 -9.75 33.15 Q-9.6 33.75 -9.95 33.65" fill="#fcce00" fill-rule="evenodd" stroke="none"/>
      <path d="M-7.65 28.8 L-7.85 28.2 Q-6.2 28.85 -6.95 31.45 L-6.45 32.6 Q-5.6 33.45 -7.95 33.05 -8.35 33.0 -7.95 31.15 -7.4 29.75 -7.65 28.8" fill="#fabf15" fill-rule="evenodd" stroke="none"/>
      <path d="M-7.2 29.7 L-7.25 31.7 -6.8 32.7 -7.15 32.8 Q-7.55 32.8 -7.55 31.55 L-7.2 29.7" fill="#fcfb88" fill-rule="evenodd" stroke="none"/>
      <path d="M-8.8 33.3 Q-9.1 34.1 -9.75 33.95 -9.2 33.85 -9.4 33.15 L-8.8 33.3" fill="#be6c18" fill-rule="evenodd" stroke="none"/>
      <path d="M-13.1 28.75 Q-12.55 30.25 -12.95 30.45 -13.55 30.7 -15.45 29.75 -15.95 30.45 -16.6 30.05 -17.05 29.75 -17.05 29.25 L-16.95 28.8 Q-18.6 27.6 -18.6 27.05 -18.6 26.75 -17.9 26.65 L-16.95 26.3 Q-15.35 23.8 -13.45 25.05 -11.5 26.25 -13.1 28.75" fill="#d7a400" fill-rule="evenodd" stroke="none"/>
      <path d="M-13.05 28.75 Q-12.55 30.25 -12.95 30.45 -13.4 30.7 -14.9 30.0 L-15.1 29.55 -13.8 28.25 Q-13.4 27.65 -13.25 25.95 L-12.8 25.6 Q-11.9 27.0 -13.05 28.75" fill="#be6c18" fill-rule="evenodd" stroke="none"/>
      <path d="M-13.35 28.6 Q-12.9 29.85 -13.25 30.0 -13.75 30.25 -15.4 29.4 L-16.65 28.6 Q-18.05 27.55 -18.1 27.1 -16.95 26.9 -16.65 26.5 -15.25 24.3 -13.6 25.35 -11.95 26.4 -13.35 28.6" fill="#ffe168" fill-rule="evenodd" stroke="none"/>
      <path d="M-14.45 25.3 Q-13.9 25.3 -13.95 25.8 -14.25 25.7 -15.65 27.05 -16.6 28.0 -16.9 27.95 L-17.55 27.2 Q-16.55 27.0 -16.15 26.45 -15.15 25.2 -14.45 25.3" fill="#fcfb88" fill-rule="evenodd" stroke="none"/>
      <path d="M-16.6 29.75 L-16.75 29.35 -16.3 29.4 Q-16.3 29.95 -16.6 29.75" fill="#fcce00" fill-rule="evenodd" stroke="none"/>
      <path d="M-13.3 26.1 L-13.35 25.55 Q-12.05 26.55 -13.4 28.6 -13.6 28.9 -13.2 29.7 L-14.65 29.75 Q-15.05 29.55 -14.15 28.1 -13.35 26.95 -13.3 26.1" fill="#fabf15" fill-rule="evenodd" stroke="none"/>
      <path d="M-13.15 27.05 L-13.7 28.75 -13.55 29.7 -13.95 29.75 Q-14.15 29.6 -13.95 28.55 L-13.15 27.05" fill="#fcfb88" fill-rule="evenodd" stroke="none"/>
      <path d="M-15.45 29.75 Q-15.95 30.4 -16.45 30.1 -15.95 30.1 -15.95 29.45 L-15.45 29.75" fill="#be6c18" fill-rule="evenodd" stroke="none"/>
      <path d="M-16.85 24.45 Q-16.5 25.8 -16.85 25.95 -17.45 26.2 -19.05 25.15 -19.5 25.75 -20.05 25.35 L-20.25 24.2 Q-21.6 23.1 -21.6 22.55 -20.35 22.45 -20.05 22.05 -18.5 19.95 -16.9 21.15 -15.25 22.4 -16.85 24.45" fill="#d7a400" fill-rule="evenodd" stroke="none"/>
      <path d="M-16.85 24.5 Q-16.5 25.8 -16.85 25.95 -17.35 26.15 -18.55 25.45 L-18.7 25.05 -17.45 24.0 Q-17.05 23.5 -16.8 22.0 L-16.35 21.75 Q-15.7 22.95 -16.85 24.5" fill="#be6c18" fill-rule="evenodd" stroke="none"/>
      <path d="M-17.1 24.3 Q-16.8 25.45 -17.1 25.55 -17.6 25.75 -18.95 24.85 L-20.0 24.05 Q-21.15 23.15 -21.15 22.65 L-19.85 22.2 Q-18.45 20.35 -17.05 21.4 -15.75 22.45 -17.1 24.3" fill="#ffe168" fill-rule="evenodd" stroke="none"/>
      <path d="M-17.8 21.3 Q-17.3 21.35 -17.4 21.8 -17.65 21.7 -19.0 22.8 L-20.15 23.5 -20.65 22.75 Q-19.85 22.75 -19.35 22.2 -18.45 21.2 -17.8 21.3" fill="#fcfb88" fill-rule="evenodd" stroke="none"/>
      <path d="M-20.0 25.05 L-20.15 24.7 -19.7 24.8 -20.0 25.05" fill="#fcce00" fill-rule="evenodd" stroke="none"/>
      <path d="M-16.85 22.15 L-16.85 21.65 Q-15.8 22.6 -17.1 24.3 -17.35 24.7 -17.05 25.3 L-18.3 25.25 Q-18.55 25.1 -17.75 23.8 -16.95 22.9 -16.85 22.15" fill="#fabf15" fill-rule="evenodd" stroke="none"/>
      <path d="M-16.8 22.95 L-17.4 24.4 -17.35 25.3 -17.65 25.25 Q-17.95 25.15 -17.55 24.2 L-16.8 22.95" fill="#fcfb88" fill-rule="evenodd" stroke="none"/>
      <path d="M-19.05 25.15 Q-19.5 25.7 -19.95 25.4 -19.5 25.45 -19.45 24.9 L-19.05 25.15" fill="#be6c18" fill-rule="evenodd" stroke="none"/>
      <path d="M12.0 31.1 Q11.85 31.8 9.65 32.7 9.95 33.6 9.1 33.9 L8.15 33.7 7.85 33.3 5.15 33.45 Q4.9 33.25 5.35 32.6 L5.75 31.55 Q4.75 28.45 7.15 27.65 9.5 26.95 10.5 30.0 10.65 30.55 12.0 31.1" fill="#d7a400" fill-rule="evenodd" stroke="none"/>
      <path d="M10.55 30.0 Q10.7 30.55 12.05 31.1 11.85 31.65 10.3 32.45 L9.75 32.25 9.6 30.25 8.0 28.2 8.05 27.55 Q9.85 27.75 10.55 30.0" fill="#be6c18" fill-rule="evenodd" stroke="none"/>
      <path d="M10.15 30.15 L11.45 31.05 Q11.25 31.75 9.4 32.4 L7.85 32.9 5.6 33.05 Q6.25 31.95 6.05 31.45 5.25 28.7 7.25 28.05 9.35 27.4 10.15 30.15" fill="#ffe168" fill-rule="evenodd" stroke="none"/>
      <path d="M6.6 28.7 L7.4 28.65 Q7.25 28.75 7.25 31.0 7.4 32.45 7.15 32.65 L6.05 32.65 Q6.6 31.75 6.4 30.95 6.05 29.35 6.6 28.7" fill="#fcfb88" fill-rule="evenodd" stroke="none"/>
      <path d="M8.85 33.65 Q8.55 33.75 8.4 33.5 8.25 33.3 8.75 33.15 9.25 33.55 8.85 33.65" fill="#fcce00" fill-rule="evenodd" stroke="none"/>
      <path d="M8.15 28.35 L7.65 27.95 8.6 28.1 Q9.65 28.55 10.15 30.15 10.2 30.3 11.2 30.8 12.2 31.15 10.25 32.05 9.85 32.2 9.2 30.45 L8.15 28.35" fill="#fabf15" fill-rule="evenodd" stroke="none"/>
      <path d="M9.0 28.85 L10.05 30.5 10.95 31.1 Q11.05 31.3 10.75 31.4 10.4 31.65 9.75 30.55 L9.0 28.85" fill="#fcfb88" fill-rule="evenodd" stroke="none"/>
      <path d="M9.65 32.7 Q9.85 33.55 9.25 33.8 9.6 33.4 9.1 32.95 L9.65 32.7" fill="#be6c18" fill-rule="evenodd" stroke="none"/>
      <path d="M17.8 27.0 Q17.75 27.6 16.0 28.9 16.45 29.65 15.75 30.05 15.3 30.3 14.85 30.05 L14.5 29.75 Q12.7 30.65 12.15 30.45 12.55 29.1 12.3 28.6 10.85 26.05 12.8 24.9 14.8 23.75 16.25 26.35 16.5 26.8 17.8 27.0" fill="#d7a400" fill-rule="evenodd" stroke="none"/>
      <path d="M16.25 26.35 Q16.5 26.75 17.8 27.0 17.8 27.55 16.5 28.55 L16.0 28.5 15.5 26.75 13.7 25.2 13.6 24.6 Q15.2 24.45 16.25 26.35" fill="#be6c18" fill-rule="evenodd" stroke="none"/>
      <path d="M15.95 26.5 Q16.15 26.9 17.25 27.05 17.25 27.65 15.75 28.7 L14.45 29.45 Q12.85 30.2 12.45 30.0 12.8 28.85 12.55 28.45 11.25 26.2 12.95 25.2 14.65 24.25 15.95 26.5" fill="#ffe168" fill-rule="evenodd" stroke="none"/>
      <path d="M12.5 25.95 Q13.55 25.5 13.25 25.75 13.1 25.9 13.55 27.8 L13.8 29.35 12.8 29.55 Q13.15 28.75 12.8 27.95 12.2 26.6 12.5 25.95" fill="#fcfb88" fill-rule="evenodd" stroke="none"/>
      <path d="M15.5 29.9 L15.05 29.9 Q14.9 29.7 15.3 29.45 15.8 29.7 15.5 29.9" fill="#fcce00" fill-rule="evenodd" stroke="none"/>
      <path d="M13.8 25.3 L13.3 25.05 14.2 25.0 Q15.2 25.2 16.0 26.55 16.2 26.9 17.05 26.9 17.8 27.15 16.4 28.2 16.15 28.35 15.15 27.0 L13.8 25.3" fill="#fabf15" fill-rule="evenodd" stroke="none"/>
      <path d="M14.7 25.6 L15.95 26.9 16.85 27.2 16.7 27.55 Q16.55 27.7 15.65 27.0 L14.7 25.6" fill="#fcfb88" fill-rule="evenodd" stroke="none"/>
      <path d="M16.0 28.9 Q16.35 29.65 15.85 29.95 16.1 29.5 15.55 29.2 L16.0 28.9" fill="#be6c18" fill-rule="evenodd" stroke="none"/>
      <path d="M19.15 22.0 L20.6 22.35 Q20.7 22.9 19.35 24.25 19.85 24.85 19.3 25.3 L18.15 25.2 Q16.65 26.25 16.2 26.15 16.4 24.95 16.05 24.55 14.35 22.5 15.95 21.25 17.55 19.95 19.15 22.0" fill="#d7a400" fill-rule="evenodd" stroke="none"/>
      <path d="M19.2 21.95 Q19.45 22.3 20.65 22.3 20.7 22.7 19.75 23.85 L19.3 23.9 18.55 22.45 16.75 21.35 16.6 20.85 Q17.95 20.5 19.2 21.95" fill="#be6c18" fill-rule="evenodd" stroke="none"/>
      <path d="M18.95 22.15 Q19.2 22.45 20.15 22.45 20.25 22.95 19.1 24.1 L18.05 24.95 Q16.8 25.8 16.4 25.7 16.55 24.7 16.3 24.35 14.8 22.6 16.15 21.5 17.45 20.45 18.95 22.15" fill="#ffe168" fill-rule="evenodd" stroke="none"/>
      <path d="M15.85 22.2 L16.45 21.9 Q16.15 22.25 17.05 23.65 L17.45 24.95 16.65 25.25 Q16.85 24.5 16.4 23.9 15.65 22.8 15.85 22.2" fill="#fcfb88" fill-rule="evenodd" stroke="none"/>
      <path d="M16.9 21.45 L16.4 21.3 17.15 21.1 Q18.1 21.15 18.95 22.2 L19.95 22.35 Q20.75 22.35 19.6 23.55 19.35 23.8 18.35 22.7 17.6 21.7 16.9 21.45" fill="#fabf15" fill-rule="evenodd" stroke="none"/>
      <path d="M17.7 21.55 L19.0 22.5 19.85 22.65 19.75 22.95 Q19.5 23.2 18.75 22.6 L17.7 21.55" fill="#fcfb88" fill-rule="evenodd" stroke="none"/>
      <path d="M19.35 24.25 Q19.75 24.8 19.35 25.2 19.55 24.75 19.0 24.6 L19.35 24.25" fill="#be6c18" fill-rule="evenodd" stroke="none"/>
      <path d="M15.6 20.85 L15.6 21.6 13.85 23.8 Q9.05 28.85 -0.5 28.85 -10.05 28.85 -14.75 23.65 L-16.25 21.65 -16.25 20.7 -14.95 22.4 Q-10.4 27.2 -0.7 27.2 9.5 27.2 14.15 22.55 L15.6 20.85" fill="#d7a400" fill-rule="evenodd" stroke="none"/>
      <path d="M10.55 26.4 Q6.1 28.85 -0.5 28.85 L-0.65 27.2 Q6.1 27.2 10.35 25.15 11.45 25.4 10.55 26.4" fill="#be6c18" fill-rule="evenodd" stroke="none"/>
      <path d="M13.8 23.5 Q9.0 28.5 -0.55 28.5 -10.1 28.5 -14.8 23.3 L-15.8 22.05 -15.8 21.85 -14.95 22.8 Q-10.4 27.55 -0.75 27.55 9.45 27.55 14.1 23.0 L15.15 21.9 13.8 23.5" fill="#ffe168" fill-rule="evenodd" stroke="none"/>
      <path d="M-2.85 27.6 L-3.25 28.1 Q-6.5 27.8 -9.05 26.4 -6.85 27.3 -2.85 27.6" fill="#fcfbae" fill-rule="evenodd" stroke="none"/>
    </g>
  </defs>
</svg>
